public/images/logo-light.svg

<svg width="48" height="48" viewBox="0 0 48 48" fill="none" xmlns="http://www.w3.org/2000/svg">
<mask id="path-1-inside-1" fill="white">
<path fill-rule="evenodd" clip-rule="evenodd" d="M24 45C35.598 45 45 35.598 45 24C45 12.402 35.598 3 24 3C12.402 3 3 12.402 3 24C3 35.598 12.402 45 24 45ZM48 24C48 37.2548 37.2548 48 24 48C10.7452 48 0 37.2548 0 24C0 10.7452 10.7452 0 24 0C37.2548 0 48 10.7452 48 24Z"/>
</mask>
<path fill-rule="evenodd" clip-rule="evenodd" d="M24 45C35.598 45 45 35.598 45 24C45 12.402 35.598 3 24 3C12.402 3 3 12.402 3 24C3 35.598 12.402 45 24 45ZM48 24C48 37.2548 37.2548 48 24 48C10.7452 48 0 37.2548 0 24C0 10.7452 10.7452 0 24 0C37.2548 0 48 10.7452 48 24Z" fill="#108571"/>
<path d="M42 24C42 33.9411 33.9411 42 24 42V48C37.2548 48 48 37.2548 48 24H42ZM24 6C33.9411 6 42 14.0589 42 24H48C48 10.7452 37.2548 0 24 0V6ZM6 24C6 14.0589 14.0589 6 24 6V0C10.7452 0 0 10.7452 0 24H6ZM24 42C14.0589 42 6 33.9411 6 24H0C0 37.2548 10.7452 48 24 48V42ZM24 51C38.9117 51 51 38.9117 51 24H45C45 35.598 35.598 45 24 45V51ZM-3 24C-3 38.9117 9.08831 51 24 51V45C12.402 45 3 35.598 3 24H-3ZM24 -3C9.08831 -3 -3 9.08831 -3 24H3C3 12.402 12.402 3 24 3V-3ZM51 24C51 9.08831 38.9117 -3 24 -3V3C35.598 3 45 12.402 45 24H51Z" fill="#108571" mask="url(#path-1-inside-1)"/>
<path d="M23.2169 10.8603C24.8114 9.8224 26.7626 9.29978 29.1512 9.57102C31.8183 9.87391 33.3991 11.5193 34.2641 12.9626C34.6942 13.6804 34.965 14.372 35.129 14.8813C35.1967 15.0914 35.2473 15.2742 35.2841 15.4199L38.209 19.4028C38.5867 19.917 38.5977 20.6139 38.2365 21.1398C37.8754 21.6656 37.2213 21.9055 36.6059 21.7379L36.6003 21.7364L34.5072 21.3336C33.9455 21.2652 33.4273 21.2414 33.0305 21.2813C32.8276 21.3017 32.7184 21.3323 32.6705 21.3484C32.5108 21.5594 32.413 21.8383 32.4163 22.4575C32.4193 23.0303 32.5017 23.6943 32.6168 24.6221L32.6168 24.6222L32.6168 24.6223C32.661 24.9791 32.7101 25.3749 32.7614 25.8195C32.8894 26.9293 33.2358 28.3239 33.6325 29.9213C33.7269 30.3014 33.8241 30.6929 33.922 31.0948C34.407 33.0874 34.8991 35.315 34.8991 37.2299C34.8991 39.4068 34.8308 42.2796 33.6589 45.0792L30.8916 43.9208C31.8118 41.7224 31.8991 39.3838 31.8991 37.2299C31.8991 35.7244 31.4997 33.8282 31.0071 31.8043C30.9216 31.4533 30.8328 31.0965 30.7435 30.7379L29.6601 25.1652C29.5351 24.1605 29.4204 23.2384 29.4163 22.4735C29.4104 21.3597 29.6241 20.2719 30.4685 19.3044C31.1228 18.5546 32.0933 18.3604 32.7306 18.2963C33.0318 18.2661 33.3425 18.2576 33.6507 18.264L32.6811 16.9437L32.2734 15.8008C32.1594 15.4467 31.9738 14.9772 31.6907 14.5047C31.1291 13.5675 30.2559 12.7158 28.8127 12.5519C27.0908 12.3563 25.8424 12.7309 24.8535 13.3745C23.8264 14.0432 22.9831 15.0659 22.2151 16.313C21.5199 17.4419 21.2003 18.5502 20.8155 19.9779L20.7741 20.1317C20.4019 21.5148 19.965 23.1386 19.0304 25.0277C17.9988 27.1128 15.6752 29.5197 13.7847 31.294L9.11864 35.2847C8.47988 35.7919 7.55781 36.5201 6.42265 37.4057L4.57739 35.0403C5.70494 34.1607 6.62018 33.4379 7.25304 32.9353L9.28345 31.2856C9.92757 30.7404 10.8033 29.9777 11.7317 29.1065C13.6488 27.3072 15.5808 25.235 16.3415 23.6974C17.1433 22.0767 17.5148 20.6976 17.8896 19.3061L17.9189 19.1971C18.3009 17.7801 18.7112 16.2816 19.6606 14.7399C20.5373 13.3163 21.6608 11.8732 23.2169 10.8603Z" fill="#108571"/>
<path d="M21.2401 34.6077C21.4568 33.8081 22.2806 33.3355 23.0802 33.5522L24.062 33.92C24.5992 34.1632 25.3183 34.5547 26.0229 35.1481C27.4775 36.3732 28.8286 38.444 28.4293 41.5707C28.103 44.1256 27.5828 45.9104 26.417 47.4177L24.0439 45.5823C24.7238 44.7034 25.1518 43.5524 25.4535 41.1906C25.6995 39.2643 24.9238 38.1447 24.0904 37.4427C23.6509 37.0726 23.1856 36.8164 22.8245 36.6528L22.2869 36.4454C21.4925 36.2252 21.0242 35.4044 21.2401 34.6077Z" fill="#108571"/>
<path fill-rule="evenodd" clip-rule="evenodd" d="M28.5 18C29.3284 18 30 17.3284 30 16.5C30 15.6716 29.3284 15 28.5 15C27.6716 15 27 15.6716 27 16.5C27 17.3284 27.6716 18 28.5 18Z" fill="#108571"/>
</svg>

<svg width="48" height="48" fill="none" xmlns="http://www.w3.org/2000/svg"><path fill-rule="evenodd" clip-rule="evenodd" d="M48 24c0 13.255-10.745 24-24 24S0 37.255 0 24 10.745 0 24 0s24 10.745 24 24zM24 45c11.598 0 21-9.402 21-21S35.598 3 24 3 3 12.402 3 24s9.402 21 21 21z" fill="#108571"/><path d="M23.217 10.86c1.594-1.038 3.546-1.56 5.934-1.289 2.667.303 4.248 1.948 5.113 3.392a9.333 9.333 0 011.02 2.457l2.925 3.983a1.5 1.5 0 01-1.603 2.335l-.006-.002-2.093-.402c-.561-.069-1.08-.093-1.476-.053a1.64 1.64 0 00-.36.067c-.16.211-.258.49-.255 1.11.003.572.086 1.236.2 2.164.045.357.094.753.145 1.198.128 1.11.475 2.504.871 4.101.095.38.192.772.29 1.174.485 1.992.977 4.22.977 6.135 0 2.177-.068 5.05-1.24 7.85l-2.767-1.16c.92-2.198 1.007-4.536 1.007-6.69 0-1.506-.4-3.402-.892-5.426a215.64 215.64 0 00-.264-1.066l-1.083-5.573c-.125-1.005-.24-1.927-.244-2.691-.006-1.114.208-2.202 1.052-3.17.655-.75 1.625-.944 2.263-1.008a7.68 7.68 0 01.92-.032l-.97-1.32-.408-1.143a6.334 6.334 0 00-.582-1.296c-.562-.938-1.435-1.79-2.878-1.953-1.722-.196-2.97.179-3.96.822-1.027.67-1.87 1.692-2.638 2.939-.695 1.129-1.015 2.237-1.4 3.665l-.04.154c-.373 1.383-.81 3.007-1.745 4.896-1.031 2.085-3.355 4.492-5.245 6.266l-4.666 3.99a403.78 403.78 0 01-2.696 2.122L4.577 35.04c1.128-.88 2.043-1.602 2.676-2.105l2.03-1.65a65.07 65.07 0 002.449-2.178c1.917-1.8 3.849-3.872 4.61-5.41.801-1.62 1.173-3 1.548-4.39l.029-.11c.382-1.417.792-2.915 1.742-4.457.876-1.424 2-2.867 3.556-3.88z" fill="#108571"/><path d="M21.24 34.608a1.5 1.5 0 011.84-1.056l.982.368a8.524 8.524 0 011.96 1.228c1.456 1.225 2.807 3.296 2.407 6.423-.326 2.555-.846 4.34-2.012 5.847l-2.373-1.836c.68-.879 1.108-2.03 1.41-4.391.245-1.927-.53-3.046-1.364-3.748a5.533 5.533 0 00-1.265-.79l-.538-.208a1.5 1.5 0 01-1.047-1.837z" fill="#108571"/><path fill-rule="evenodd" clip-rule="evenodd" d="M28.5 18a1.5 1.5 0 100-3 1.5 1.5 0 000 3z" fill="#108571"/></svg>
